assets/pwa/mono.svg

<svg viewBox="0 0 24 24" xmlns="http://www.w3.org/2000/svg"><path d="m20.5967 7.482 3.4033 9.036h-2.5098l-.5816-1.6184h-3.2452l.6933-1.7532h2.0019l-.95-2.6597zm-8.111 0 1.7722 5.8393 2.4921-5.8393h2.4154l-3.6433 9.036h-2.3833l-1.6395-5.2366-1.7196 5.2366h-2.377l-1.233-2.1161 1.2144-3.7415 1.342 2.6609 1.9029-5.8393h1.8566zm-8.7453 0c1.0635 0 1.8713.3055 2.4234.9166a2.647 2.647 0 0 1 .2806.3684l-1.0753 3.3128-.3847 1.1854c-.352.1006-.7533.1509-1.204.1509h-1.4876v3.102h-2.2928v-9.0361zm-.5816 1.7532h-.866v2.4276h.8597c.5577 0 .9406-.1194 1.1485-.3582.1896-.215.2845-.5058.2845-.8724 0-.364-.1079-.6544-.3235-.8714-.2157-.217-.5834-.3256-1.1032-.3256z"/></svg>

<svg xmlns="http://www.w3.org/2000/svg" viewBox="0 0 24 24"><path d="M20.597 7.482 24 16.518h-2.51L20.91 14.9h-3.246l.694-1.754h2.002l-.95-2.66zm-8.111 0 1.772 5.84 2.492-5.84h2.415l-3.643 9.036H13.14l-1.64-5.237-1.72 5.237H7.404L6.17 14.402l1.214-3.742 1.342 2.661 1.903-5.839zm-8.746 0q1.596 0 2.424.917a2.7 2.7 0 0 1 .28.368L5.37 12.08l-.385 1.185q-.528.15-1.204.151H2.293v3.102H0V7.482zM3.16 9.235h-.866v2.428h.86q.836 0 1.148-.358.285-.323.284-.873 0-.546-.323-.871-.324-.326-1.103-.326"/></svg>
